X: 1
T:Teddy O'Neill
M:6/8
L:1/8
Q:80
C:Arranged by T. Tully
S:Air
K:HP
A|
{g}f2{GdG}f{gfg}f{g}ef|
{gf}g{a}Be{Gdc}d{g}cB|
{g}Ad{c}d{gde}dcd|  !
{gfg}f{g}ed{gef}e2{AGAG}A{g}f2{GdG}f{gfg}f{g}ef|
{gf}g{a}Be{Gdc}d{g}cB|
{g}A{Gdc}df{ag}a3/2g/2{a}f|  !
{gef}eB{d}c{Gdc}d2|]
{g}c3/4d/4|
{g}e2{GdG}e{gef}e2f|  !
{gf}g{a}fe{gfg}fd2|
{g}d3/2e/2d{gde}d{e}cd|
{gfg}f{g}ed{gef}e2{AGAG}A{g}f2{GdG}f{gfg}f{g}ef|  !
{gf}g{a}Be{Gdc}d{g}cB|
{g}A{Gdc}df{ag}a3/2g/2{a}f|
{gef}eB{d}c{Gdc}d2|]  !
